www/assets/icons/hotel_class.svg

<svg xmlns="http://www.w3.org/2000/svg" width="24" height="24" viewBox="0 0 24 24" fill='currentColor'><path d="M8.24 10H.66l6.17 4.41L4.49 22l6.17-4.69L16.84 22l-2.35-7.59L20.66 10h-7.58l-2.42-8zm12.78 12-1.86-6.01L23.34 13H19.9l-3.08 2.2 1.46 4.72zM16.66 8l-1.82-6-1.04 3.45.77 2.55z"/></svg>

<svg width="24" height="24" viewBox="0 0 24 24" xmlns="http://www.w3.org/2000/svg" fill='currentColor'><path d="M8.24003 10H0.660034L6.83003 14.41L4.49003 22L10.66 17.31L16.84 22L14.49 14.41L20.66 10H13.08L10.66 2L8.24003 10ZM21.02 22L19.16 15.99L23.34 13H19.9L16.82 15.2L18.28 19.92L21.02 22ZM16.66 8L14.84 2L13.8 5.45L14.57 8H16.66Z"/></svg>
